apps/mobile/assets/icons/phosphor/text-align-left.svg

<svg
  height="32"
  viewBox="0 0 256 256"
  width="32"
  xmlns="http://www.w3.org/2000/svg"
>
  <path
    d="m32 64a8 8 0 0 1 8-8h176a8 8 0 0 1 0 16h-176a8 8 0 0 1 -8-8zm8 48h128a8 8 0 0 0 0-16h-128a8 8 0 0 0 0 16zm176 24h-176a8 8 0 0 0 0 16h176a8 8 0 0 0 0-16zm-48 40h-128a8 8 0 0 0 0 16h128a8 8 0 0 0 0-16z"
  />
</svg>

<svg xmlns="http://www.w3.org/2000/svg" width="32" height="32" fill="#000000" viewBox="0 0 256 256"><path d="M32,64a8,8,0,0,1,8-8H216a8,8,0,0,1,0,16H40A8,8,0,0,1,32,64Zm8,48H168a8,8,0,0,0,0-16H40a8,8,0,0,0,0,16Zm176,24H40a8,8,0,0,0,0,16H216a8,8,0,0,0,0-16Zm-48,40H40a8,8,0,0,0,0,16H168a8,8,0,0,0,0-16Z"></path></svg>
